build/img/icons/phone2.svg

<svg width="140" height="140" viewBox="0 0 140 140" fill="none" xmlns="http://www.w3.org/2000/svg">
<path fill-rule="evenodd" clip-rule="evenodd" d="M121.008 106.742C120.774 107.308 120.43 107.822 119.996 108.255L104.175 124.076C102.186 126.065 99.5709 127.152 96.8043 127.152H96.6503C88.4398 127.019 59.9784 124.837 37.5693 102.428C15.1519 80.011 12.9717 51.537 12.8392 43.3385C12.7975 40.5498 13.9193 37.8075 15.9161 35.8106L31.7177 20.0032C32.6149 19.1619 33.7989 18.6935 35.0293 18.6935C36.2598 18.6935 37.4438 19.1619 38.3411 20.0033L61.6626 43.3248C62.0962 43.7577 62.4402 44.2718 62.675 44.8378C62.9097 45.4038 63.0305 46.0106 63.0305 46.6233C63.0305 47.236 62.9097 47.8427 62.675 48.4087C62.4402 48.9747 62.0955 49.4896 61.6619 49.9225L51.872 59.7124L52.0703 60.3787C53.3601 64.7113 56.3421 73.0043 61.6619 78.3241C66.9816 83.6438 75.2747 86.6258 79.6073 87.9156L80.2736 88.114L90.0642 78.3234C90.4971 77.8897 91.0112 77.5457 91.5772 77.311C92.1432 77.0763 92.7499 76.9554 93.3627 76.9554C93.9754 76.9554 94.5821 77.0763 95.1481 77.311C95.7141 77.5457 96.229 77.8904 96.6619 78.3241L119.996 101.658C120.43 102.091 120.774 102.605 121.008 103.171C121.243 103.737 121.364 104.344 121.364 104.957C121.364 105.569 121.243 106.176 121.008 106.742ZM51.7701 46.6233L35.0352 29.8884L22.1647 42.7588L22.1728 43.2532C22.2913 50.4954 24.2119 75.8683 44.1676 95.824C64.0584 115.721 89.343 117.695 96.7322 117.819L97.2268 117.827L110.104 104.957L93.3685 88.2217L84.999 96.5912C84.4527 97.1402 83.7775 97.5434 83.0351 97.764C82.2927 97.9846 81.5018 98.0145 80.7444 97.8529C80.4489 97.7912 76.3732 96.9166 71.1838 94.865C65.98 92.8077 59.7495 89.6027 55.0693 84.9225C50.3891 80.2423 47.1841 74.0118 45.1268 68.808C43.0752 63.6186 42.1997 59.5391 42.1381 59.2436C41.9773 58.4858 42.0086 57.6998 42.2293 56.9571C42.45 56.2145 42.8541 55.5378 43.4026 54.9907L51.7701 46.6233Z" fill="#F3F3F3"/>
<path fill-rule="evenodd" clip-rule="evenodd" d="M76.9425 11.6756C76.9328 11.6754 76.9231 11.6752 76.9134 11.675C76.9231 11.6752 76.9327 11.6754 76.9424 11.6756C76.9424 11.6756 76.9424 11.6756 76.9425 11.6756ZM76.9424 22.1778V12.8425C105.294 13.4111 126.586 34.6822 127.156 62.9917H117.82C117.272 39.6749 100.29 22.7246 76.9424 22.1778Z" fill="#F3F3F3"/>
<path fill-rule="evenodd" clip-rule="evenodd" d="M76.9946 35.0134C77.7631 35.0314 78.5169 35.0672 79.2558 35.1208C78.5169 35.0672 77.7632 35.0314 76.9947 35.0134C76.9947 35.0134 76.9946 35.0134 76.9946 35.0134ZM96.6411 43.3535C101.101 47.8134 103.608 54.3784 103.814 62.9999H94.4787C94.3196 57.3072 92.9636 52.9516 90.0033 49.9913C87.043 47.031 82.6874 45.675 76.9947 45.5159V36.1804C85.6162 36.3865 92.1812 38.8937 96.6411 43.3535Z" fill="#F3F3F3"/>
</svg>

<svg width="140" height="140" fill="none" xmlns="http://www.w3.org/2000/svg">
    <path fill-rule="evenodd" clip-rule="evenodd" d="M121.008 106.742a4.643 4.643 0 0 1-1.012 1.513l-15.821 15.821c-1.989 1.989-4.604 3.076-7.37 3.076h-.155c-8.21-.133-36.672-2.315-59.08-24.724-22.418-22.417-24.598-50.891-24.73-59.09-.043-2.788 1.08-5.53 3.076-7.527l15.802-15.808a4.841 4.841 0 0 1 6.623 0l23.322 23.322a4.662 4.662 0 0 1-.001 6.597l-9.79 9.79.198.667c1.29 4.332 4.272 12.625 9.592 17.945s13.613 8.302 17.945 9.592l.667.198 9.79-9.79a4.66 4.66 0 0 1 6.598 0l23.334 23.334a4.658 4.658 0 0 1 1.012 5.084zM51.77 46.623 35.035 29.888l-12.87 12.87.008.495c.118 7.242 2.039 32.615 21.995 52.571 19.89 19.897 45.175 21.871 52.564 21.995l.495.008 12.877-12.87-16.736-16.735L85 96.592a4.632 4.632 0 0 1-4.255 1.26c-.295-.06-4.37-.935-9.56-2.987-5.204-2.057-11.434-5.262-16.115-9.942-4.68-4.68-7.885-10.911-9.942-16.115-2.052-5.19-2.927-9.269-2.989-9.564a4.643 4.643 0 0 1 1.265-4.253l8.367-8.368zM76.942 11.676l-.029-.001h.03zm0 10.502v-9.336c28.352.57 49.644 21.84 50.214 50.15h-9.336c-.548-23.317-17.53-40.267-40.878-40.814zM76.995 35.013zm19.646 8.34c4.46 4.46 6.967 11.025 7.173 19.647h-9.335c-.16-5.693-1.515-10.048-4.476-13.009-2.96-2.96-7.316-4.316-13.008-4.475V36.18c8.621.206 15.186 2.714 19.646 7.173z" fill="#F3F3F3"/>
</svg>
